packages/assets/static/images/icons/swimming-pool.svg

<svg width="24" height="24" viewBox="0 0 24 24" xmlns="http://www.w3.org/2000/svg">
<path d="M8.24988 14.0058C8.44879 14.0058 8.63956 13.9268 8.78021 13.7861C8.92086 13.6455 8.99988 13.4547 8.99988 13.2558V12.0005H14.9999V13.4339C14.9999 13.6328 15.0789 13.8236 15.2195 13.9643C15.3602 14.1049 15.551 14.1839 15.7499 14.1839C15.9488 14.1839 16.1396 14.1049 16.2802 13.9643C16.4209 13.8236 16.4999 13.6328 16.4999 13.4339V3.00049C16.4999 2.80158 16.4209 2.61081 16.2802 2.47016C16.1396 2.32951 15.9488 2.25049 15.7499 2.25049C15.551 2.25049 15.3602 2.32951 15.2195 2.47016C15.0789 2.61081 14.9999 2.80158 14.9999 3.00049V4.50049H8.99988V3.00049C8.99988 2.80158 8.92086 2.61081 8.78021 2.47016C8.63956 2.32951 8.44879 2.25049 8.24988 2.25049C8.05097 2.25049 7.8602 2.32951 7.71955 2.47016C7.5789 2.61081 7.49988 2.80158 7.49988 3.00049V13.2558C7.49988 13.4547 7.5789 13.6455 7.71955 13.7861C7.8602 13.9268 8.05097 14.0058 8.24988 14.0058ZM8.99988 10.5005V9.00049H14.9999V10.5005H8.99988ZM14.9999 6.00049V7.50049H8.99988V6.00049H14.9999ZM2.24988 15.7505C2.24988 15.5516 2.3289 15.3608 2.46955 15.2202C2.6102 15.0795 2.80097 15.0005 2.99988 15.0005C4.35175 15.0005 5.08019 15.4861 5.66613 15.8761C6.18738 16.2249 6.60175 16.5005 7.49988 16.5005C8.398 16.5005 8.81238 16.2249 9.33363 15.8761C9.91863 15.4861 10.6461 15.0005 11.9989 15.0005C13.3518 15.0005 14.0802 15.4861 14.6652 15.8761C15.1883 16.2249 15.6027 16.5005 16.4999 16.5005C17.3971 16.5005 17.8124 16.2249 18.3336 15.8761C18.9196 15.4861 19.6461 15.0005 20.9999 15.0005C21.1988 15.0005 21.3896 15.0795 21.5302 15.2202C21.6709 15.3608 21.7499 15.5516 21.7499 15.7505C21.7499 15.9494 21.6709 16.1402 21.5302 16.2808C21.3896 16.4215 21.1988 16.5005 20.9999 16.5005C20.1018 16.5005 19.6874 16.7761 19.1661 17.1249C18.5802 17.5149 17.8536 18.0005 16.4999 18.0005C15.1461 18.0005 14.4186 17.5149 13.8336 17.1249C13.3124 16.7761 12.8971 16.5005 11.9999 16.5005C11.1027 16.5005 10.6874 16.7761 10.1661 17.1249C9.58113 17.5149 8.85363 18.0005 7.50082 18.0005C6.148 18.0005 5.4205 17.5149 4.83457 17.1249C4.31238 16.7761 3.898 16.5005 2.99988 16.5005C2.80097 16.5005 2.6102 16.4215 2.46955 16.2808C2.3289 16.1402 2.24988 15.9494 2.24988 15.7505ZM21.7499 19.5005C21.7499 19.6994 21.6709 19.8902 21.5302 20.0308C21.3896 20.1715 21.1988 20.2505 20.9999 20.2505C20.1018 20.2505 19.6874 20.5261 19.1661 20.8749C18.5802 21.2649 17.8536 21.7505 16.4999 21.7505C15.1461 21.7505 14.4186 21.2649 13.8336 20.8749C13.3124 20.5261 12.8971 20.2505 11.9999 20.2505C11.1027 20.2505 10.6874 20.5261 10.1661 20.8749C9.58113 21.2649 8.85363 21.7505 7.50082 21.7505C6.148 21.7505 5.4205 21.2649 4.83457 20.8749C4.31238 20.5261 3.898 20.2505 2.99988 20.2505C2.80097 20.2505 2.6102 20.1715 2.46955 20.0308C2.3289 19.8902 2.24988 19.6994 2.24988 19.5005C2.24988 19.3016 2.3289 19.1108 2.46955 18.9702C2.6102 18.8295 2.80097 18.7505 2.99988 18.7505C4.35175 18.7505 5.08019 19.2361 5.66613 19.6261C6.18738 19.9749 6.60175 20.2505 7.49988 20.2505C8.398 20.2505 8.81238 19.9749 9.33363 19.6261C9.91863 19.2361 10.6461 18.7505 11.9989 18.7505C13.3518 18.7505 14.0802 19.2361 14.6652 19.6261C15.1883 19.9749 15.6027 20.2505 16.4999 20.2505C17.3971 20.2505 17.8124 19.9749 18.3336 19.6261C18.9196 19.2361 19.6461 18.7505 20.9999 18.7505C21.1988 18.7505 21.3896 18.8295 21.5302 18.9702C21.6709 19.1108 21.7499 19.3016 21.7499 19.5005Z"/>
</svg>

<svg viewBox="0 0 24 24" xmlns="http://www.w3.org/2000/svg" aria-hidden="true" fill="currentColor"><path d="M8.25 14.006a.75.75 0 0 0 .75-.75V12h6v1.433a.75.75 0 0 0 1.5 0V3A.75.75 0 1 0 15 3v1.5H9V3a.75.75 0 0 0-1.5 0v10.256a.75.75 0 0 0 .75.75M9 10.5V9h6v1.5zM15 6v1.5H9V6zM2.25 15.75A.75.75 0 0 1 3 15c1.352 0 2.08.485 2.666.875.521.349.936.624 1.834.624s1.312-.275 1.834-.624c.585-.39 1.312-.875 2.665-.875s2.081.485 2.666.875c.523.349.938.624 1.835.624s1.312-.275 1.834-.624C18.92 15.485 19.646 15 21 15a.75.75 0 1 1 0 1.5c-.898 0-1.313.275-1.834.624-.586.39-1.312.875-2.666.875s-2.081-.485-2.666-.875c-.522-.349-.937-.625-1.834-.625s-1.313.276-1.834.625c-.585.39-1.312.875-2.665.875s-2.08-.485-2.666-.875C4.312 16.776 3.898 16.5 3 16.5a.75.75 0 0 1-.75-.75m19.5 3.75a.75.75 0 0 1-.75.75c-.898 0-1.313.275-1.834.624-.586.39-1.312.875-2.666.875s-2.081-.485-2.666-.875c-.522-.349-.937-.625-1.834-.625s-1.313.276-1.834.625c-.585.39-1.312.875-2.665.875s-2.08-.485-2.666-.875c-.523-.349-.937-.625-1.835-.625a.75.75 0 1 1 0-1.5c1.352 0 2.08.486 2.666.876.521.349.936.624 1.834.624s1.312-.275 1.834-.624c.585-.39 1.312-.876 2.665-.876s2.081.486 2.666.876c.523.349.938.624 1.835.624s1.312-.275 1.834-.624c.586-.39 1.312-.876 2.666-.876a.75.75 0 0 1 .75.75"/></svg>
